**kern	**kern	**dynam
*part1	*part1	*part1
*staff2	*staff1	*
*I"Piano	*	*
*clefF4	*clefG2	*
*k[b-]	*k[b-]	*
=1	=1	=1
!	!	!LO:DY:a
2CC 2C	8r	p
.	8GL 8B- 8c	.
.	8G^ 8B- 8d-X	.
.	8GJ 8B- 8c	.
=	=	=
2FF 2F	8r	.
.	8AL 8c	.
.	8A^ 8e	.
.	8AJ 8f	.
=	=	=
2FF 2F	8r	.
.	8G#XL 8Bn	.
.	8G# 8B 8d	.
.	8G#J 8B 8f	.
=	=	=
2FF 2F	8r	.
.	8AL 8c	.
.	8A 8c 8e	.
.	8AJ 8c 8f	.
=	=	=
*^	*	*
8rF	2D	8r	.
8AL 8d	.	8f#XL 8a 8cc	.
8A 8d	.	8f#^ 8a 8ee-X	.
8AJ 8d	.	8f#J 8a 8dd	.
=	=	=	=
!	!	!	!LO:DY:a
8rA	2G	8r	<
8B-L 8d	.	8gL 8b-	.
8B- 8d	.	8g^ 8b- 8ee-X	.
8B-J 8d	.	8gJ 8b- 8dd	.
=	=	=	=
8rA	2En	8r	[
8GL 8c	.	8gL 8dd	.
8G 8c	.	8g 8cc	.
8GJ 8c	.	8gJ 8b-	.
=	=	=	=
8rA	2F	8r	.
8AL	.	8cL 8a	.
8A	.	8c 8g	.
8AJ	.	8cJ 8f	.
*v	*v	*	*
=	=	=
*-	*-	*-
!!!system-decoration: {(s1,s2)}
